dist/img/blog/11.svg

<svg width="25" height="25" viewBox="0 0 25 25" fill="none" xmlns="http://www.w3.org/2000/svg">
<path d="M19.0353 13.1615C19.022 13.757 17.0535 15.2268 17.0535 15.2268C17.0535 15.2268 15.0849 13.757 15.0713 13.1615C14.2857 13.2332 13.5809 13.5832 13.0555 14.1121C13.0929 14.1499 13.1299 14.1876 13.1659 14.227C13.9053 15.0326 14.3124 16.079 14.3124 17.1734C14.3124 17.5248 14.2704 17.8354 14.1867 18.1087C14.3982 18.1169 14.6204 18.1189 14.8507 18.1189C15.0204 18.1189 15.1945 18.118 15.372 18.118H18.7344C18.9118 18.118 19.0855 18.1189 19.2553 18.1189C20.8111 18.1191 22 18.0394 22 16.4131C22 14.7108 20.6981 13.3135 19.0353 13.1615L19.0353 13.1615Z" fill="#202125"/>
<path d="M17.0544 13.5884C18.5585 13.5884 19.7773 11.3273 19.7773 9.82374C19.7773 8.32046 18.5585 7.10146 17.0544 7.10146C15.5508 7.10146 14.332 8.32062 14.332 9.82374C14.332 11.3275 15.551 13.5884 17.0544 13.5884Z" fill="#202125"/>
<path d="M10.3143 13.2718C10.2984 13.9864 7.93618 15.75 7.93618 15.75C7.93618 15.75 5.5737 13.9864 5.55759 13.2718C3.56265 13.4539 2 15.1308 2 17.1733C2 19.125 3.42594 19.2207 5.29271 19.2207C5.49655 19.2207 5.70489 19.2193 5.91802 19.2193H9.95291C10.1657 19.2193 10.3742 19.2207 10.5781 19.2207C12.445 19.2207 13.8715 19.1252 13.8715 17.1733C13.8717 15.1308 12.3095 13.4539 10.3144 13.2718H10.3143Z" fill="#202125"/>
<path d="M7.93696 13.7845C9.74159 13.7845 11.2042 11.0712 11.2042 9.26663C11.2042 7.46264 9.74159 5.99999 7.93696 5.99999C6.13281 5.99999 4.67017 7.4628 4.67017 9.26663C4.67017 11.0709 6.13281 13.7845 7.93696 13.7845Z" fill="#202125"/>
</svg>

<svg width="25" height="25" viewBox="0 0 25 25" fill="none" xmlns="http://www.w3.org/2000/svg"><path d="M19.035 13.162c-.013.595-1.982 2.065-1.982 2.065s-1.968-1.47-1.982-2.066a3.254 3.254 0 00-2.015.951l.11.115a4.346 4.346 0 011.146 2.946c0 .352-.042.662-.125.936.211.008.433.01.664.01l.521-.001h3.883C20.811 18.12 22 18.04 22 16.414c0-1.702-1.302-3.1-2.965-3.252z" fill="#202125"/><path d="M17.054 13.588c1.505 0 2.723-2.26 2.723-3.764a2.723 2.723 0 00-5.445 0c0 1.504 1.219 3.764 2.722 3.764zm-6.74-.316c-.016.714-2.378 2.478-2.378 2.478s-2.362-1.764-2.378-2.478A3.918 3.918 0 002 17.173c0 1.952 1.426 2.048 3.293 2.048l.625-.002h4.035l.625.002c1.867 0 3.293-.096 3.293-2.048a3.918 3.918 0 00-3.557-3.901z" fill="#202125"/><path d="M7.937 13.784c1.805 0 3.267-2.713 3.267-4.517a3.267 3.267 0 00-6.534 0c0 1.804 1.463 4.518 3.267 4.518z" fill="#202125"/></svg>
